X:1
T: The Maid at the Churn
C:
R:Reel
Q: 232
K:G
M:4/4
L:1/8
GF|DG GA BG AF|DE Fd cF AF|DG GA Bc dg|((3fed) ((3cBA) BG AF|
DG GA BG AF|DE Fd cF AF|DG GA Bc dg|((3fed) ((3cBA) BG G2|
|:gd ((3ggg) gb ag|fc ((3ccc) fg af|gd ((3ggg) gb ag|((3fed) ((3cBA) BG Bd|
gd ((3ggg) gb ag|fd ef gf ga|((3bag) ((3gfe) ((3fed) ((3efg) |((3fed) ((3cBA) BG AF:|
DG GA BG AF|DE Fd cF AF|DG GA Bc dg|((3fed) ((3cBA) BG AF|
DG GA BG AF|DE Fd cF AF|DG GA Bc dg|((3fed) ((3cBA) G2||
